X:1
T:The Gospel Trumpet
T:The Gospel Trumpet
T:William Howard Doane
T:Frances Jane (Fanny) Crosby, 1875
T:Public Domain Courtesy of the Cyber Hymnal™
T:Public Domain Courtesy of the Cyber Hymnal™
C:William Howard Doane
Z:Public Domain
Z:Courtesy of the Cyber Hymnal™
%%score ( 1 2 ) ( 3 4 )
L:1/8
Q:1/4=88
M:2/4
K:G
V:1 treble 
V:2 treble 
V:3 bass 
V:4 bass 
V:1
 [GB][DG] [DG][DF] | [DF][CE] [CE]2 | [^CE][CA] [CA][EG] | [DF]4 | [DG][DG] [DG][DA] | %5
w: 1.~Sound the Gos- pel|trum- pet forth,|Sound it loud and|long;|Come be- fore the|
w: 2.~Sound the Gos- pel|trum- pet forth,|Lift our stand- ard|high;|Let the sto- ry|
w: 3.~Sound the Gos- pel|trum- pet forth,|Shout sal- va- tion|free,|Till the truth o’er-|
 [DB][Dc] [Gd]2 | [FA][Fd] [DF][^CE] | D4 | [B,G][CG] [DG][DF] | [DF][CE] [CE]2 | %10
w: King of kings,|With a joy- ful|song;|Lo, the glor- ious|morn- ing star|
w: of the cross|Like an ar- row|fly;|Bless- èd sto- ry,|won- drous love!|
w: spread the earth|Like a might- y|sea;|All shall bow at|Je- sus’ name,|
 [^CA][DA] [EA][EG] | [EG][DF] [DF]2 | [DG][DG] [DG][DA] | [DB][Dc] !fermata![Gd]2 | %14
w: Shines with ra- diant|splen- dor bright,|Bids the na- tions|from a- far|
w: We are ran- somed|from the fall;|He, who left His|throne a- bove|
w: Ev- ery tongue His|power con- fess,|Him their sov- ereign|Lord pro- claim,|
 [Ec][EA] [DG][DF] | [DG]4 ||"^Refrain" [Gd][Ge] [Gd][GB] | [GB][FA] [FA]2 | [Ac][ce] [Bd][Ac] | %19
w: Hail its wel- come|light.||||
w: Gave His life for|all.|Great is He, the|might- y Lord,|Count- less ag- es|
w: Him their right- eous-|ness.||||
 [Ac][GB] [GB]2 | [DG][DG] [DG][DA] | [DB][Dc] !fermata![Gd]2 | [Ec][EA] [DG][DF] | [DG]4 |] %24
w: |||||
w: are His own;|Sing the tri- umphs|of His word,|He is God a-|lone.|
w: |||||
V:2
 x4 | x4 | x4 | x4 | x4 | x4 | x4 | D4 | x4 | x4 | x4 | x4 | x4 | x4 | x4 | x4 || x4 | x4 | x4 | %19
 x4 | x4 | x4 | x4 | x4 |] %24
V:3
 [G,D][G,B,] [G,B,][B,,G,] | [C,G,][C,G,] [C,G,]2 | [A,,A,][A,,E,] [A,,E,][^C,A,] | [D,A,]4 | %4
 [B,,G,][B,,G,] [B,,G,][D,F,] | G,[G,A,] [G,B,]2 | [A,D]A, [A,,A,][A,,G,] | [D,F,]4 | %8
 [G,,G,][A,,G,] [B,,G,][G,,G,] | [C,G,][C,G,] [C,G,]2 | [A,,A,][B,,A,] [^C,A,][A,,A,] | %11
 [D,A,][D,A,] [D,A,]2 | [B,,G,][B,,G,] [B,,G,][D,F,] | G,[G,A,] [G,B,]2 | [C,G,][C,C] [D,B,][D,C] | %15
 [G,,G,B,]4 || [G,B,][G,C] [G,B,][G,D] | [D,D][D,D] [D,D]2 | [D,D][D,D] [D,D][D,D] | %19
 [G,D][G,D] [G,D]2 | [B,,G,][B,,G,] [B,,G,][D,F,] | G,[G,A,] [G,B,]2 | [C,G,][C,C] [D,B,][D,C] | %23
 [G,,G,B,]4 |] %24
V:4
 x4 | x4 | x4 | x4 | x4 | G, x3 | x A, x2 | x4 | x4 | x4 | x4 | x4 | x4 | G, x3 | x4 | x4 || x4 | %17
 x4 | x4 | x4 | x4 | G, x3 | x4 | x4 |] %24

